_inc/systems/logos/zxspectrum.svg

<svg xmlns="http://www.w3.org/2000/svg" viewBox="0 0 3840 1095.1"><path d="M683.6 0h118v93.4h-118zM1.7 955.4l174.9-209.1H15.4V686H272v56.6L97.2 951.7h179.5v60.3H1.7zm401.4-114.2L298.1 686h83.1l63.9 104.1L511.3 686h78.5L485.3 841.7 599 1012h-85.4l-71.2-112.8-72.6 112.8H289zm309.1 62.6c0 43.4 33.8 60.3 72.1 60.3 25.1 0 63.5-7.3 63.5-40.6 0-35.2-48.9-41.1-96.8-53.9-48.4-12.8-97.3-31.5-97.3-92.7 0-66.7 63-98.6 121.9-98.6 68 0 130.6 29.7 130.6 105h-69.4c-2.3-39.3-30.1-49.3-64.4-49.3-22.8 0-49.3 9.6-49.3 37 0 25.1 15.5 28.3 97.3 49.3 23.7 5.9 96.8 21 96.8 95 0 59.8-47 104.6-135.6 104.6-72.1 0-139.7-35.6-138.8-116h69.4Zm226.9-127.9h61.6V806h.9c15.5-25.1 41.1-36.5 70.3-36.5 74 0 107.3 59.8 107.3 126.9 0 63-34.7 121.9-103.7 121.9-28.3 0-55.3-12.3-70.8-35.6h-.9V1095H939V775.9Zm175.4 118.8c0-37.4-15.1-76.3-56.6-76.3-42.5 0-56.2 37.9-56.2 76.3s14.6 74.9 56.6 74.9c42.5 0 56.2-36.6 56.2-74.9m143.4 15c1.8 41.1 21.9 59.8 58 59.8 26 0 47-16 51.1-30.6h57.1c-18.3 55.7-57.1 79.5-110.5 79.5-74.4 0-120.6-51.1-120.6-124.2 0-70.8 48.9-124.7 120.6-124.7 80.4 0 119.2 67.6 114.6 140.2zm105.4-41.1c-5.9-32.9-20.1-50.2-51.6-50.2-41.1 0-53 32-53.9 50.2zm250.3-9.5c-4.1-26.5-21-40.6-47.9-40.6-41.6 0-55.3 42-55.3 76.7 0 33.8 13.2 74.4 53.9 74.4 30.1 0 47.5-19.2 51.6-47.9h62.6c-8.2 62.6-51.6 96.8-113.7 96.8-71.2 0-119.2-50.2-119.2-121 0-73.5 43.8-127.9 120.6-127.9 55.7 0 106.9 29.2 111 89.5zm169.8-83.2h47.5v43.4h-47.5v116.9c0 21.9 5.5 27.4 27.4 27.4 6.9 0 13.2-.5 20.1-1.8v50.7c-11 1.8-25.1 2.3-37.9 2.3-39.7 0-74.4-9.1-74.4-56.2V819.3h-39.3v-43.4h39.3v-70.8h64.8zm64.8 0h61.6v43.8h.9c11.9-29.7 43.8-50.2 75.3-50.2 4.6 0 10 .9 14.2 2.3v60.3c-5.9-1.4-15.5-2.3-23.3-2.3-47.5 0-63.9 34.2-63.9 75.8V1012h-64.8zm385.4 236.1H2172v-32.9h-1.4c-16.4 26.5-44.7 39.3-72.1 39.3-69 0-86.3-38.8-86.3-97.3V775.9h64.8v133.3c0 38.8 11.4 58 41.6 58 35.2 0 50.2-19.6 50.2-67.6V775.9h64.8zm37.5-236.1h61.2v32h.9c16.9-24.2 41.6-38.4 72.1-38.4 29.7 0 56.2 11 69 39.3 13.7-20.5 38.4-39.3 71.2-39.3 50.2 0 86.3 23.3 86.3 84.5v158H2567V878.2c0-31.5-2.7-57.5-39.7-57.5-36.5 0-43.4 30.1-43.4 59.8V1012H2419V879.6c0-27.4 1.8-58.9-39.3-58.9-12.8 0-43.8 8.2-43.8 54.3v137h-64.8zM3039.4 0h118v93.4h-118zM683.6 128.1h118v391.3h-118zm2355.8 0h118v391.3h-118zM2198 0h118v519.3h-118zM950.8 128.1h-118v391.2h118V221.4h415.4v297.9h118V128.1h-118zm2889.2 0h-651.4v391.2h118V221.4H3840zM1 153.8H0v217.9h118v-1.3h415.4V426H1v93.3h651.4V426h-1V275.7h-118v1.3H118v-55.6h534.4v-93.3H1zm1514.4-25.7v391.2h651.3V426h-533.3V221.4h533.3v-93.3h-533.3zm1483.1 0h-651.3v93.4h538.6V277h-538.6v242.4h661V128.1zM2465.2 426v-55.6h420.6V426z" class="st4" style="fill:#fff"/></svg>

<?xml version="1.0" encoding="utf-8"?>
<svg version="1.1" viewBox="0 0 3840 1095.1" xmlns="http://www.w3.org/2000/svg">
  <rect x="683.6" class="st4" width="118" height="93.4" style="fill: rgb(255, 255, 255);"/>
  <path class="st4" d="M 1.7 955.4 L 176.6 746.3 L 15.4 746.3 L 15.4 686 L 272 686 L 272 742.6 L 97.2 951.7 L 276.7 951.7 L 276.7 1012 L 1.7 1012 L 1.7 955.4 Z" style="fill: rgb(255, 255, 255);"/>
  <path class="st4" d="M 403.1 841.2 L 298.1 686 L 381.2 686 L 445.1 790.1 L 511.3 686 L 589.8 686 L 485.3 841.7 L 599 1012 L 513.6 1012 L 442.4 899.2 L 369.8 1012 L 289 1012 L 403.1 841.2 Z" style="fill: rgb(255, 255, 255);"/>
  <path class="st4" d="M 712.2 903.8 C 712.2 947.2 746 964.1 784.3 964.1 C 809.4 964.1 847.8 956.8 847.8 923.5 C 847.8 888.3 798.9 882.4 751 869.6 C 702.6 856.8 653.7 838.1 653.7 776.9 C 653.7 710.2 716.7 678.3 775.6 678.3 C 843.6 678.3 906.2 708 906.2 783.3 L 836.8 783.3 C 834.5 744 806.7 734 772.4 734 C 749.6 734 723.1 743.6 723.1 771 C 723.1 796.1 738.6 799.3 820.4 820.3 C 844.1 826.2 917.2 841.3 917.2 915.3 C 917.2 975.1 870.2 1019.9 781.6 1019.9 C 709.5 1019.9 641.9 984.3 642.8 903.9 L 712.2 903.9 Z" style="fill: rgb(255, 255, 255);"/>
  <path class="st4" d="M 939.1 775.9 L 1000.7 775.9 L 1000.7 806 L 1001.6 806 C 1017.1 780.9 1042.7 769.5 1071.9 769.5 C 1145.9 769.5 1179.2 829.3 1179.2 896.4 C 1179.2 959.4 1144.5 1018.3 1075.5 1018.3 C 1047.2 1018.3 1020.2 1006 1004.7 982.7 L 1003.8 982.7 L 1003.8 1095 L 939 1095 L 939 775.9 Z M 1114.5 894.7 C 1114.5 857.3 1099.4 818.4 1057.9 818.4 C 1015.4 818.4 1001.7 856.3 1001.7 894.7 C 1001.7 933.1 1016.3 969.6 1058.3 969.6 C 1100.8 969.6 1114.5 933 1114.5 894.7 Z" style="fill: rgb(255, 255, 255);"/>
  <path class="st4" d="M 1257.9 909.7 C 1259.7 950.8 1279.8 969.5 1315.9 969.5 C 1341.9 969.5 1362.9 953.5 1367 938.9 L 1424.1 938.9 C 1405.8 994.6 1367 1018.4 1313.6 1018.4 C 1239.2 1018.4 1193 967.3 1193 894.2 C 1193 823.4 1241.9 769.5 1313.6 769.5 C 1394 769.5 1432.8 837.1 1428.2 909.7 L 1257.9 909.7 Z M 1363.3 868.6 C 1357.4 835.7 1343.2 818.4 1311.7 818.4 C 1270.6 818.4 1258.7 850.4 1257.8 868.6 L 1363.3 868.6 Z" style="fill: rgb(255, 255, 255);"/>
  <path class="st4" d="M 1613.6 859.1 C 1609.5 832.6 1592.6 818.5 1565.7 818.5 C 1524.1 818.5 1510.4 860.5 1510.4 895.2 C 1510.4 929 1523.6 969.6 1564.3 969.6 C 1594.4 969.6 1611.8 950.4 1615.9 921.7 L 1678.5 921.7 C 1670.3 984.3 1626.9 1018.5 1564.8 1018.5 C 1493.6 1018.5 1445.6 968.3 1445.6 897.5 C 1445.6 824 1489.4 769.6 1566.2 769.6 C 1621.9 769.6 1673.1 798.8 1677.2 859.1 L 1613.6 859.1 Z" style="fill: rgb(255, 255, 255);"/>
  <path class="st4" d="M 1783.4 775.9 L 1830.9 775.9 L 1830.9 819.3 L 1783.4 819.3 L 1783.4 936.2 C 1783.4 958.1 1788.9 963.6 1810.8 963.6 C 1817.7 963.6 1824 963.1 1830.9 961.8 L 1830.9 1012.5 C 1819.9 1014.3 1805.8 1014.8 1793 1014.8 C 1753.3 1014.8 1718.6 1005.7 1718.6 958.6 L 1718.6 819.3 L 1679.3 819.3 L 1679.3 775.9 L 1718.6 775.9 L 1718.6 705.1 L 1783.4 705.1 L 1783.4 775.9 Z" style="fill: rgb(255, 255, 255);"/>
  <path class="st4" d="M 1848.2 775.9 L 1909.8 775.9 L 1909.8 819.7 L 1910.7 819.7 C 1922.6 790 1954.5 769.5 1986 769.5 C 1990.6 769.5 1996 770.4 2000.2 771.8 L 2000.2 832.1 C 1994.3 830.7 1984.7 829.8 1976.9 829.8 C 1929.4 829.8 1913 864 1913 905.6 L 1913 1012 L 1848.2 1012 L 1848.2 775.9 Z" style="fill: rgb(255, 255, 255);"/>
  <path class="st4" d="M 2233.6 1012 L 2172 1012 L 2172 979.1 L 2170.6 979.1 C 2154.2 1005.6 2125.9 1018.4 2098.5 1018.4 C 2029.5 1018.4 2012.2 979.6 2012.2 921.1 L 2012.2 775.9 L 2077 775.9 L 2077 909.2 C 2077 948 2088.4 967.2 2118.6 967.2 C 2153.8 967.2 2168.8 947.6 2168.8 899.6 L 2168.8 775.9 L 2233.6 775.9 L 2233.6 1012 Z" style="fill: rgb(255, 255, 255);"/>
  <path class="st4" d="M 2271.1 775.9 L 2332.3 775.9 L 2332.3 807.9 L 2333.2 807.9 C 2350.1 783.7 2374.8 769.5 2405.3 769.5 C 2435 769.5 2461.5 780.5 2474.3 808.8 C 2488 788.3 2512.7 769.5 2545.5 769.5 C 2595.7 769.5 2631.8 792.8 2631.8 854 L 2631.8 1012 L 2567 1012 L 2567 878.2 C 2567 846.7 2564.3 820.7 2527.3 820.7 C 2490.8 820.7 2483.9 850.8 2483.9 880.5 L 2483.9 1012 L 2419 1012 L 2419 879.6 C 2419 852.2 2420.8 820.7 2379.7 820.7 C 2366.9 820.7 2335.9 828.9 2335.9 875 L 2335.9 1012 L 2271.1 1012 L 2271.1 775.9 Z" style="fill: rgb(255, 255, 255);"/>
  <rect x="3039.4" class="st4" width="118" height="93.4" style="fill: rgb(255, 255, 255);"/>
  <rect x="683.6" y="128.1" class="st4" width="118" height="391.3" style="fill: rgb(255, 255, 255);"/>
  <rect x="3039.4" y="128.1" class="st4" width="118" height="391.3" style="fill: rgb(255, 255, 255);"/>
  <rect x="2198" class="st4" width="118" height="519.3" style="fill: rgb(255, 255, 255);"/>
  <polygon class="st4" points="950.8 128.1 832.8 128.1 832.8 221.4 832.8 519.3 950.8 519.3 950.8 221.4 1366.2 221.4 1366.2 519.3 1484.2 519.3 1484.2 221.4 1484.2 128.1 1366.2 128.1" style="fill: rgb(255, 255, 255);"/>
  <polygon class="st4" points="3840 128.1 3306.6 128.1 3188.6 128.1 3188.6 221.4 3188.6 519.3 3306.6 519.3 3306.6 221.4 3840 221.4" style="fill: rgb(255, 255, 255);"/>
  <polygon class="st4" points="1 153.8 0 153.8 0 277 0 370.4 0 371.7 118 371.7 118 370.4 533.4 370.4 533.4 426 1 426 1 519.3 533.4 519.3 651.4 519.3 652.4 519.3 652.4 426 651.4 426 651.4 370.4 651.4 277 651.4 275.7 533.4 275.7 533.4 277 118 277 118 221.4 652.4 221.4 652.4 128.1 1 128.1" style="fill: rgb(255, 255, 255);"/>
  <polygon class="st4" points="1515.4 128.1 1515.4 221.4 1515.4 426 1515.4 519.3 1633.4 519.3 2166.7 519.3 2166.7 426 1633.4 426 1633.4 221.4 2166.7 221.4 2166.7 128.1 1633.4 128.1" style="fill: rgb(255, 255, 255);"/>
  <path class="st4" d="M 2998.5 128.1 L 2890.2 128.1 L 2885.8 128.1 L 2347.2 128.1 L 2347.2 221.5 L 2885.8 221.5 L 2885.8 277 L 2347.2 277 L 2347.2 282 L 2347.2 370.4 L 2347.2 426 L 2347.2 519.4 L 2465.2 519.4 L 2885.8 519.4 L 2890.2 519.4 L 2998.5 519.4 L 3003.8 519.4 L 3008.2 519.4 L 3008.2 128.1 L 3003.8 128.1 L 2998.5 128.1 Z M 2465.2 426 L 2465.2 370.4 L 2885.8 370.4 L 2885.8 426 L 2465.2 426 Z" style="fill: rgb(255, 255, 255);"/>
</svg>
